assets/images/wallpaper_identification_icon_raftstory.svg

<?xml version="1.0" encoding="UTF-8" standalone="no"?><!DOCTYPE svg PUBLIC "-//W3C//DTD SVG 1.1//EN" "http://www.w3.org/Graphics/SVG/1.1/DTD/svg11.dtd"><svg width="100%" height="100%" viewBox="0 0 695 695" version="1.1" xmlns="http://www.w3.org/2000/svg" xmlns:xlink="http://www.w3.org/1999/xlink" xml:space="preserve" xmlns:serif="http://www.serif.com/" style="fill-rule:evenodd;clip-rule:evenodd;stroke-linecap:round;stroke-linejoin:round;stroke-miterlimit:1.5;"><g id="Raft-Story" serif:id="Raft Story"><path d="M657.573,463.921c0,-23.224 -18.854,-42.078 -42.077,-42.078l-536.547,0c-23.223,0 -42.078,18.854 -42.078,42.078c0,23.223 18.855,42.077 42.078,42.077l536.547,0c23.223,0 42.077,-18.854 42.077,-42.077Z" style="fill:none;stroke:#fff;stroke-width:53.97px;"/><path d="M195.813,529.437c7.52,11.271 11.903,24.806 11.903,39.357c0,39.21 -31.833,71.043 -71.043,71.043c-39.21,0 -71.044,-31.833 -71.044,-71.043c0,-14.551 4.384,-28.086 11.904,-39.357m265.651,-0c7.52,11.271 11.903,24.806 11.903,39.357c0,39.21 -31.833,71.043 -71.043,71.043c-39.21,0 -71.044,-31.833 -71.044,-71.043c-0,-14.551 4.385,-28.086 11.903,-39.357m402.434,-0.033c7.532,11.274 11.926,24.823 11.926,39.39c-0,39.21 -31.834,71.043 -71.044,71.043c-39.21,0 -71.044,-31.833 -71.044,-71.043c0,-14.551 4.384,-28.086 11.903,-39.357m-23.806,-0c7.519,11.271 11.903,24.806 11.903,39.357c0,39.21 -31.833,71.043 -71.043,71.043c-39.211,0 -71.045,-31.833 -71.045,-71.043c0,-14.551 4.385,-28.086 11.904,-39.357" style="fill:none;stroke:#fff;stroke-width:53.97px;"/><path d="M352.446,54.607l-0,367.233" style="fill:none;stroke:#fff;stroke-width:53.97px;"/><path d="M546.91,105.849c-94.777,-0 -99.688,-29.115 -194.464,-29.115l-0,96.831c89.424,0 105.04,29.115 194.464,29.115l-0,-96.831Z" style="fill:none;stroke:#fff;stroke-width:53.97px;"/></g></svg>

<?xml version="1.0" encoding="UTF-8" standalone="no"?>
<!DOCTYPE svg PUBLIC "-//W3C//DTD SVG 1.1//EN" "http://www.w3.org/Graphics/SVG/1.1/DTD/svg11.dtd">
<svg width="100%" height="100%" viewBox="0 0 695 695" version="1.1" xmlns="http://www.w3.org/2000/svg" xmlns:xlink="http://www.w3.org/1999/xlink" xml:space="preserve" xmlns:serif="http://www.serif.com/" style="fill-rule:evenodd;clip-rule:evenodd;stroke-linecap:round;stroke-linejoin:round;stroke-miterlimit:1.5;">
    <g id="Raft-Story" serif:id="Raft Story">
        <path d="M657.573,463.921C657.573,440.697 638.719,421.843 615.496,421.843L78.949,421.843C55.726,421.843 36.871,440.697 36.871,463.921C36.871,487.144 55.726,505.998 78.949,505.998L615.496,505.998C638.719,505.998 657.573,487.144 657.573,463.921Z" style="fill:none;stroke:white;stroke-width:53.97px;"/>
        <path d="M195.813,529.437C203.333,540.708 207.716,554.243 207.716,568.794C207.716,608.004 175.883,639.837 136.673,639.837C97.463,639.837 65.629,608.004 65.629,568.794C65.629,554.243 70.013,540.708 77.533,529.437M343.184,529.437C350.704,540.708 355.087,554.243 355.087,568.794C355.087,608.004 323.254,639.837 284.044,639.837C244.834,639.837 213,608.004 213,568.794C213,554.243 217.385,540.708 224.903,529.437M627.337,529.404C634.869,540.678 639.263,554.227 639.263,568.794C639.263,608.004 607.429,639.837 568.219,639.837C529.009,639.837 497.175,608.004 497.175,568.794C497.175,554.243 501.559,540.708 509.078,529.437M485.272,529.437C492.791,540.708 497.175,554.243 497.175,568.794C497.175,608.004 465.342,639.837 426.132,639.837C386.921,639.837 355.087,608.004 355.087,568.794C355.087,554.243 359.472,540.708 366.991,529.437" style="fill:none;stroke:white;stroke-width:53.97px;"/>
        <g transform="matrix(1,0,0,1,-4.946,0)">
            <path d="M352.446,54.607L352.446,421.84" style="fill:none;stroke:white;stroke-width:53.97px;"/>
        </g>
    </g>
    <g transform="matrix(0.355467,0,0,0.355467,325.961,40.5977)">
        <g transform="matrix(0.537789,0,0,0.531019,581.504,56.7714)">
            <path d="M74.507,39.411L74.507,656.932" style="fill:none;stroke:white;stroke-width:284.26px;"/>
        </g>
        <path d="M621.573,409.796C531.925,367.472 438.831,382.909 347.5,409.796C234.309,443.118 152.796,457.351 74.507,409.796" style="fill:none;stroke:white;stroke-width:151.91px;"/>
        <g transform="matrix(1,0,0,1,0,-334.242)">
            <path d="M621.573,409.796C531.925,367.472 438.831,382.909 347.5,409.796C234.309,443.118 152.796,457.351 74.507,409.796" style="fill:none;stroke:white;stroke-width:151.91px;"/>
        </g>
    </g>
</svg>
